X:94
T:Captain H. Munro
R:Reel
B:The Athole Collection
M:C|
L:1/8
K:G Minor
d|BG G2 DGBd|cBAG FfcA|1 BdBG AcAF|DG^FA GG,G,:|2 BgBG AfAF|
DG^FA BGG||g/a/|bg g2 dgbg|af=ef cfaf|bg^fa bgga|bg g2 dgbg|af=ef cacA|
BbBG AaAF|DG^FA BGG||

